assets/azureappserviceplans/original.svg

<svg height="18" viewBox="0 0 18 18" width="18" xmlns="http://www.w3.org/2000/svg" xmlns:xlink="http://www.w3.org/1999/xlink"><linearGradient id="a" gradientUnits="userSpaceOnUse" x1="5.57" x2="5.57" y1="17.5" y2=".5"><stop offset=".05" stop-color="#949494"/><stop offset=".36" stop-color="#979797"/><stop offset=".54" stop-color="#9f9f9f"/><stop offset=".69" stop-color="#adadad"/><stop offset=".73" stop-color="#b3b3b3"/></linearGradient><linearGradient id="b" gradientUnits="userSpaceOnUse" x1="10.56" x2="10.56" y1="6.02" y2="19.71"><stop offset=".18" stop-color="#5ea0ef"/><stop offset="1" stop-color="#0078d4"/></linearGradient><path d="m10.56 16.93a.56.56 0 0 1 -.57.57h-8.85a.56.56 0 0 1 -.56-.57v-15.86a.56.56 0 0 1 .56-.57h8.86a.56.56 0 0 1 .57.57z" fill="url(#a)"/><path d="m2 6.46a1.08 1.08 0 0 1 1.13-1.08h5a1.08 1.08 0 0 1 1.05 1.08 1.08 1.08 0 0 1 -1.08 1.09h-5a1.09 1.09 0 0 1 -1.1-1.09m0-3.22a1.09 1.09 0 0 1 1.13-1.09h5a1.08 1.08 0 0 1 1.05 1.09 1.08 1.08 0 0 1 -1.08 1.08h-5a1.08 1.08 0 0 1 -1.1-1.08" fill="#003067"/><circle cx="3.17" cy="3.24" fill="#50e6ff" r=".73"/><circle cx="3.17" cy="6.46" fill="#50e6ff" r=".73"/><path d="m17.42 14.38a3.12 3.12 0 0 0 -2.67-3 3.93 3.93 0 0 0 -4-3.8 4 4 0 0 0 -3.83 2.66 3.7 3.7 0 0 0 -3.22 3.59 3.77 3.77 0 0 0 3.86 3.67h6.77a3.15 3.15 0 0 0 3.09-3.12" fill="url(#b)"/><path d="m0 0h18v18h-18z" fill="none"/></svg>

<svg xmlns="http://www.w3.org/2000/svg" width="18" height="18" viewBox="0 0 18 18"><linearGradient id="a" x1="5.57" x2="5.57" y1="17.5" y2=".5" gradientUnits="userSpaceOnUse"><stop offset=".05" stop-color="#949494"/><stop offset=".36" stop-color="#979797"/><stop offset=".54" stop-color="#9f9f9f"/><stop offset=".69" stop-color="#adadad"/><stop offset=".73" stop-color="#b3b3b3"/></linearGradient><linearGradient id="b" x1="10.56" x2="10.56" y1="6.02" y2="19.71" gradientUnits="userSpaceOnUse"><stop offset=".18" stop-color="#5ea0ef"/><stop offset="1" stop-color="#0078d4"/></linearGradient><path fill="url(#a)" d="M10.56 16.93a.56.56 0 0 1-.57.57H1.14a.56.56 0 0 1-.56-.57V1.07A.56.56 0 0 1 1.14.5H10a.56.56 0 0 1 .57.57z"/><path fill="#003067" d="M2 6.46a1.08 1.08 0 0 1 1.13-1.08h5a1.08 1.08 0 0 1 1.05 1.08A1.08 1.08 0 0 1 8.1 7.55h-5A1.09 1.09 0 0 1 2 6.46m0-3.22a1.09 1.09 0 0 1 1.13-1.09h5a1.08 1.08 0 0 1 1.05 1.09A1.08 1.08 0 0 1 8.1 4.32h-5A1.08 1.08 0 0 1 2 3.24"/><circle cx="3.17" cy="3.24" r=".73" fill="#50e6ff"/><circle cx="3.17" cy="6.46" r=".73" fill="#50e6ff"/><path fill="url(#b)" d="M17.42 14.38a3.12 3.12 0 0 0-2.67-3 3.93 3.93 0 0 0-4-3.8 4 4 0 0 0-3.83 2.66 3.7 3.7 0 0 0-3.22 3.59 3.77 3.77 0 0 0 3.86 3.67h6.77a3.15 3.15 0 0 0 3.09-3.12"/><path fill="none" d="M0 0h18v18H0z"/></svg>
